X:1
T:Partita I Corrente
T:BWV 825
T:J. S. Bach
%%score { 1 | 2 }
L:1/8
Q:1/4=144
M:3/4
K:Bb
V:1 treble nm="Harp"
V:2 bass 
V:1
"^Vivace" B | (3BdA (3BFB (3dfA | (3BdA (3BFB (3egA | (3Bfc (3dBd (3fbd | (3gAc (3fGB (3eFA | %5
 d2- (3dBd (3fdc | (3BdA (3BGB (3dgb | =e2- (3ece (3ged | (3c=e=B (3cAc (3eac' | f2- (3fdf a2- | %10
 (3adc (3Bdg (3cBA- | (3ABA (3GB=e (3AGF- | (3FGF (3=EGc (3FED | =E2- (3E z =e (6:4:6f/e/f/e/d/e/ | %14
 (3gcA (3:2:2F2 f (6:4:6g/f/g/f/=e/f/ | (3g=eB (3:2:2G2 g (6:4:6a/g/a/g/f/g/ | %16
 (3_a=ef (3dfa (3=bc'f | (3=edc (3gec (3BAG | (3AcG (3AFA (3cfG | (3FA=E (3FDF (3AdE | %20
 (3DFC (3DB,D (3FBC | B,2- (3:2:2B,2 G (3:2:2B,2 G | %22
 (6:4:6C/B,/C/B,/C/B,/ (6:4:5C/B,/C/B,/B, (3GA,B, | (3A,CB, (3CF=E (3BAG | (3FA=E (3FCF (3AcE | %25
 (3FA=E (3FCF (3AcE | (3FA=E (3FCF (3Ac_E | (3DBG (6:4:6F/=E/F/E/F/E/ (6:4:5F/E/F/E/F | %28
 [A,CF]4- (3:2:2[A,CF]2 B | (3BdA (3BFB (3dfA | (3BdA (3BFB (3egA | (3Bfc (3dBd (3fbd | %32
 (3gAc (3fGB (3eFA | d2- (3dBd (3fdc | (3BdA (3BGB (3dgb | =e2- (3ece (3ged | %36
 (3c=e=B (3cAc (3eac' | f2- (3fdf a2- | (3adc (3Bdg (3cBA- | (3ABA (3GB=e (3AGF- | %40
 (3FGF (3=EGc (3FED | =E2- (3E z =e (6:4:6f/e/f/e/d/e/ | (3gcA (3:2:2F2 f (6:4:6g/f/g/f/=e/f/ | %43
 (3g=eB (3:2:2G2 g (6:4:6a/g/a/g/f/g/ | (3_a=ef (3dfa (3=bc'f | (3=edc (3gec (3BAG | %46
 (3AcG (3AFA (3cfG | (3FA=E (3FDF (3AdE | (3DFC (3DB,D (3FBC | B,2- (3:2:2B,2 G (3:2:2B,2 G | %50
 (6:4:6C/B,/C/B,/C/B,/ (6:4:5C/B,/C/B,/B, (3GA,B, | (3A,CB, (3CF=E (3BAG | (3FA=E (3FCF (3AcE | %53
 (3FA=E (3FCF (3AcE | (3FA=E (3FCF (3Ac_E | (3DBG (6:4:6F/=E/F/E/F/E/ (6:4:5F/E/F/E/F | %56
 [A,CF]4- (3:2:2[A,CF]2 F | (3FA=E (3FCF (3AcG | (3AcG (3A^FA (3ceB | (3ceB (3cGc (3^fad | %60
 (3bc'e (3abd (3gac | (6:4:6g/^f/g/f/g/f/ (6:4:4g/f/df (3adc | (3BdA (3BGB (3dgb | %63
 (6:4:6f/e/f/e/f/e/ (6:4:4f/e/ce (3gcB | (3AcG (3AFA (3cfa | %65
 (6:4:6e/d/e/d/e/d/ (6:4:4e/d/Bd (3fB_A | (3:2:2G2 f (3:2:2e2 b (3:2:2_a2 d | %67
 (3:2:2E2 d (3:2:2c2 g (3:2:2f2 =B | (3:2:2C2 B (3:2:2A2 e (3:2:2d2 G | (3^FAc (3edc (3a z z | %70
 (3DGB (3dcB (3g z z | (3^C=EG (3BAG (3:2:2=e2 G | (3^FGA (3DFA (3cBA | (3gfe (3dcB (3Ac^F | %74
 G2- (3G z B (3:2:2D2 E | (3F_AE (3FAd (3:2:2f2 A | (3GBF (3GBe g2- | (3gfe (3def (3GAB | %78
 (6:4:6B/A/B/A/B/A/ (3z z A (6:4:6B/A/B/A/A/B/ | (3BFD (3:2:2B,2 B (6:4:6c/B/c/B/B/c/ | %80
 (3cGE (3:2:2C2 c (6:4:6d/c/d/c/c/d/ | (3_dAB (3GBd (3=efB | (6:4:4B/A/GF e2- (3edc | %83
 (3_dgc (3dAB (6:4:4F/E/DE | (3DFC (3DB,D (3FBF | (3FBE (3FDF (3BdA | (3BdA (3BFB (3df_A | %87
 (3Gec (6:4:6B/A/B/A/B/A/ (6:4:3B/A/ B2 | [DFB]4- (3:2:2[DFB]2 F | (3BdA (3BFB (3dfA | %90
 (3BdA (3BFB (3egA | (3Bfc (3dBd (3fbd | (3gAc (3fGB (3eFA | d2- (3dBd (3fdc | (3BdA (3BGB (3dgb | %95
 =e2- (3ece (3ged | (3c=e=B (3cAc (3eac' | f2- (3fdf a2- | (3adc (3Bdg (3cBA- | %99
 (3ABA (3GB=e (3AGF- | (3FGF (3=EGc (3FED | =E2- (3E z =e (6:4:6f/e/f/e/d/e/ | %102
 (3gcA (3:2:2F2 f (6:4:6g/f/g/f/=e/f/ | (3g=eB (3:2:2G2 g (6:4:6a/g/a/g/f/g/ | %104
 (3_a=ef (3dfa (3=bc'f | (3=edc (3gec (3BAG | (3AcG (3AFA (3cfG | (3FA=E (3FDF (3AdE | %108
 (3DFC (3DB,D (3FBC | B,2- (3:2:2B,2 G (3:2:2B,2 G | %110
 (6:4:6C/B,/C/B,/C/B,/ (6:4:5C/B,/C/B,/B, (3GA,B, | (3A,CB, (3CF=E (3BAG | (3FA=E (3FCF (3AcE | %113
 (3FA=E (3FCF (3AcE | (3FA=E (3FCF (3Ac_E | (3DBG (6:4:6F/=E/F/E/F/E/ (6:4:5F/E/F/E/F | %116
 [A,CF]4- (3:2:2[A,CF]2 F | (3FA=E (3FCF (3AcG | (3AcG (3A^FA (3ceB | (3ceB (3cGc (3^fad | %120
 (3bc'e (3abd (3gac | (6:4:6g/^f/g/f/g/f/ (6:4:4g/f/df (3adc | (3BdA (3BGB (3dgb | %123
 (6:4:6f/e/f/e/f/e/ (6:4:4f/e/ce (3gcB | (3AcG (3AFA (3cfa | %125
 (6:4:6e/d/e/d/e/d/ (6:4:4e/d/Bd (3fB_A | (3:2:2G2 f (3:2:2e2 b (3:2:2_a2 d | %127
 (3:2:2E2 d (3:2:2c2 g (3:2:2f2 =B | (3:2:2C2 B (3:2:2A2 e (3:2:2d2 G | (3^FAc (3edc (3a z z | %130
 (3DGB (3dcB (3g z z | (3^C=EG (3BAG (3:2:2=e2 G | (3^FGA (3DFA (3cBA | (3gfe (3dcB (3Ac^F | %134
 G2- (3G z B (3:2:2D2 E | (3F_AE (3FAd (3:2:2f2 A | (3GBF (3GBe g2- | (3gfe (3def (3GAB | %138
 (6:4:6B/A/B/A/B/A/ (3z z A (6:4:6B/A/B/A/A/B/ | (3BFD (3:2:2B,2 B (6:4:6c/B/c/B/B/c/ | %140
 (3cGE (3:2:2C2 c (6:4:6d/c/d/c/c/d/ | (3_dAB (3GBd (3=efB | (6:4:4B/A/GF e2- (3edc | %143
 (3_dgc (3dAB (6:4:4F/E/DE | (3DFC (3DB,D (3FBF | (3FBE (3FDF (3BdA | (3BdA (3BFB (3df_A | %147
 (3Gec (6:4:6B/A/B/A/B/A/ (6:4:3B/A/ B2 | [DFB]4- (3:2:2[DFB]2 z |] %149
V:2
 z | B,2- (3B, z D (3:2:2B,2 D | G,2- (3G, z E (3:2:2B,2 E | D,2- (3D, z F (3:2:2D2 F | %4
 (3:2:2E2 E, (3:2:2D,2 D (3:2:2C2 C, | (3B,,D,A,, (3B,,F,,B,, (3D,F,A,, | %6
 G,,2- (3:2:2G,,2 D, (3:2:2B,,2 G,, | (3C,=E,=B,, (3C,G,,C, (3E,G,_B,, | %8
 A,,2- (3:2:2A,,2 =E, (3:2:2C,2 A,, | (3D,F,C, (3D,A,,D, (3F,A,C, | %10
 (3:2:2B,,2 A, (3:2:2G,2 B,, (3:2:2A,,2 F, | (3:2:2G,,2 F, (3:2:2=E,2 G,, (3:2:2F,,2 D, | %12
 (3:2:2=E,,2 D, (3:2:2C,2 E,, (3:2:2D,,2 =B,, | (3C,,=E,,G,, (3C,=E,G, (3B,,A,,G,, | %14
 (3C,,F,,A,, (3C,F,A, (3C,B,,A,, | (3C,,G,,C, (3=E,G,B, (3E,D,C, | [C,,C,]2 z4 | %17
 [C,,C,]2 (3z z C, (3:2:2D,2 =E, | (3F,A,C (3F,A,C (3=E,A,C | (3D,F,A, (3D,F,A, (3C,F,A, | %20
 (3B,,D,F, (3B,,D,F, (3A,,D,F, | (3G,,B,,D, (3G,,B,,D, (3F,,B,,D, | %22
 (3=E,,G,,C, (3=E,G,F, (3_E,D,C, | (3:2:2F,2 D, (3:2:2A,,2 B,, (3:2:2C,2 C,, | %24
 (3:2:2F,,2 C, (3:2:2A,,2 C, (3:2:2F,,2 A,, | (3:2:2D,,2 C, (3:2:2A,,2 C, (3:2:2F,,2 A,, | %26
 (3:2:2A,,,2 C, (3:2:2A,,2 C, (3:2:2F,,2 A,, | (3:2:2B,,,2 B,, C,2 C,,2 | F,,4- (3:2:2F,,2 z | %29
 B,2- (3B, z D (3:2:2B,2 D | G,2- (3G, z E (3:2:2B,2 E | D,2- (3D, z F (3:2:2D2 F | %32
 (3:2:2E2 E, (3:2:2D,2 D (3:2:2C2 C, | (3B,,D,A,, (3B,,F,,B,, (3D,F,A,, | %34
 G,,2- (3:2:2G,,2 D, (3:2:2B,,2 G,, | (3C,=E,=B,, (3C,G,,C, (3E,G,_B,, | %36
 A,,2- (3:2:2A,,2 =E, (3:2:2C,2 A,, | (3D,F,C, (3D,A,,D, (3F,A,C, | %38
 (3:2:2B,,2 A, (3:2:2G,2 B,, (3:2:2A,,2 F, | (3:2:2G,,2 F, (3:2:2=E,2 G,, (3:2:2F,,2 D, | %40
 (3:2:2=E,,2 D, (3:2:2C,2 E,, (3:2:2D,,2 =B,, | (3C,,=E,,G,, (3C,=E,G, (3B,,A,,G,, | %42
 (3C,,F,,A,, (3C,F,A, (3C,B,,A,, | (3C,,G,,C, (3=E,G,B, (3E,D,C, | [C,,C,]2 z4 | %45
 [C,,C,]2 (3z z C, (3:2:2D,2 =E, | (3F,A,C (3F,A,C (3=E,A,C | (3D,F,A, (3D,F,A, (3C,F,A, | %48
 (3B,,D,F, (3B,,D,F, (3A,,D,F, | (3G,,B,,D, (3G,,B,,D, (3F,,B,,D, | %50
 (3=E,,G,,C, (3=E,G,F, (3_E,D,C, | (3:2:2F,2 D, (3:2:2A,,2 B,, (3:2:2C,2 C,, | %52
 (3:2:2F,,2 C, (3:2:2A,,2 C, (3:2:2F,,2 A,, | (3:2:2D,,2 C, (3:2:2A,,2 C, (3:2:2F,,2 A,, | %54
 (3:2:2A,,,2 C, (3:2:2A,,2 C, (3:2:2F,,2 A,, | (3:2:2B,,,2 B,, C,2 C,,2 | F,,4- (3:2:2F,,2 z | %57
 F,2- (3F, z A, (3:2:2C2 E | E,2- (3E, z ^F, (3:2:2A,2 C | D,2- (3D, z A, (3:2:2D2 ^F | %60
 (3:2:2G2 G, (3:2:2F,2 F (3:2:2E2 E, | (3D,^F,A,[I:staff -1] (3D^FA (3c[I:staff +1] z z | %62
 (3G,,B,,D, (3G,B,D (3F z z | (3C,E,G,[I:staff -1] (3CEG (3B[I:staff +1] z z | %64
 (3F,,A,,C, (3F,A,C (3E z z | (3B,,D,F,[I:staff -1] (3B,DF (3_A[I:staff +1] z z | %66
 (3z[I:staff -1] ED (3CEG (3FD[I:staff +1]B,- | (3B,CB, (3_A,CE (3DB,G,- | %68
 (3G,A,G, (3F,A,C (3B,G,E,- | (3E,CA, (3^F,G,A, (3E,D,C, | (3B,,G,D, (3B,,C,D, (3G,,^F,,=E,, | %71
 (3:2:2D,,2 ^A,, (3:2:2D,,2 A,, (3:2:2D,,2 A,, | D,,2- (3D,, z E, (3:2:2D,2 C, | %73
 (3:2:2B,,2 ^F, (3:2:2G,2 C, (3:2:2D,2 D,, | (3G,,B,,^F,, (3G,,D,,G,, (3B,,D,G,, | %75
 D,,2 (3z z B,, (3D,F,B,, | E,2- E,2 C,2 | (3:2:2A,,2 F, (3:2:2B,2 D, (3:2:2E,2 C, | %78
 (3F,,A,,C, (3F,A,C (3E,D,C, | (3F,,B,,D, (3F,B,D (3F,E,D, | (3F,,C,F, (3A,CE (3A,G,F, | %81
 [F,,=E,]2 z4 | [F,,-F,]2 (3F,,A,,C, (3F,G,A, | (3:2:2B,2 A, (3:2:2B,2 =E, (3:2:2F,2 F,, | %84
 (3B,,D,E, (3F,D,C, (3B,,D,G, | G,,2 z4 | (3D,,B,,C, (3D,C,B,, (3F,D,B,, | (3:2:2E,,2 E, F,2 F,,2 | %88
 B,,4- (3:2:2B,,2 z | B,2- (3B, z D (3:2:2B,2 D | G,2- (3G, z E (3:2:2B,2 E | %91
 D,2- (3D, z F (3:2:2D2 F | (3:2:2E2 E, (3:2:2D,2 D (3:2:2C2 C, | %93
 (3B,,D,A,, (3B,,F,,B,, (3D,F,A,, | G,,2- (3:2:2G,,2 D, (3:2:2B,,2 G,, | %95
 (3C,=E,=B,, (3C,G,,C, (3E,G,_B,, | A,,2- (3:2:2A,,2 =E, (3:2:2C,2 A,, | %97
 (3D,F,C, (3D,A,,D, (3F,A,C, | (3:2:2B,,2 A, (3:2:2G,2 B,, (3:2:2A,,2 F, | %99
 (3:2:2G,,2 F, (3:2:2=E,2 G,, (3:2:2F,,2 D, | (3:2:2=E,,2 D, (3:2:2C,2 E,, (3:2:2D,,2 =B,, | %101
 (3C,,=E,,G,, (3C,=E,G, (3B,,A,,G,, | (3C,,F,,A,, (3C,F,A, (3C,B,,A,, | %103
 (3C,,G,,C, (3=E,G,B, (3E,D,C, | [C,,C,]2 z4 | [C,,C,]2 (3z z C, (3:2:2D,2 =E, | %106
 (3F,A,C (3F,A,C (3=E,A,C | (3D,F,A, (3D,F,A, (3C,F,A, | (3B,,D,F, (3B,,D,F, (3A,,D,F, | %109
 (3G,,B,,D, (3G,,B,,D, (3F,,B,,D, | (3=E,,G,,C, (3=E,G,F, (3_E,D,C, | %111
 (3:2:2F,2 D, (3:2:2A,,2 B,, (3:2:2C,2 C,, | (3:2:2F,,2 C, (3:2:2A,,2 C, (3:2:2F,,2 A,, | %113
 (3:2:2D,,2 C, (3:2:2A,,2 C, (3:2:2F,,2 A,, | (3:2:2A,,,2 C, (3:2:2A,,2 C, (3:2:2F,,2 A,, | %115
 (3:2:2B,,,2 B,, C,2 C,,2 | F,,4- (3:2:2F,,2 z | F,2- (3F, z A, (3:2:2C2 E | %118
 E,2- (3E, z ^F, (3:2:2A,2 C | D,2- (3D, z A, (3:2:2D2 ^F | (3:2:2G2 G, (3:2:2F,2 F (3:2:2E2 E, | %121
 (3D,^F,A,[I:staff -1] (3D^FA (3c[I:staff +1] z z | (3G,,B,,D, (3G,B,D (3F z z | %123
 (3C,E,G,[I:staff -1] (3CEG (3B[I:staff +1] z z | (3F,,A,,C, (3F,A,C (3E z z | %125
 (3B,,D,F,[I:staff -1] (3B,DF (3_A[I:staff +1] z z | (3z[I:staff -1] ED (3CEG (3FD[I:staff +1]B,- | %127
 (3B,CB, (3_A,CE (3DB,G,- | (3G,A,G, (3F,A,C (3B,G,E,- | (3E,CA, (3^F,G,A, (3E,D,C, | %130
 (3B,,G,D, (3B,,C,D, (3G,,^F,,=E,, | (3:2:2D,,2 ^A,, (3:2:2D,,2 A,, (3:2:2D,,2 A,, | %132
 D,,2- (3D,, z E, (3:2:2D,2 C, | (3:2:2B,,2 ^F, (3:2:2G,2 C, (3:2:2D,2 D,, | %134
 (3G,,B,,^F,, (3G,,D,,G,, (3B,,D,G,, | D,,2 (3z z B,, (3D,F,B,, | E,2- E,2 C,2 | %137
 (3:2:2A,,2 F, (3:2:2B,2 D, (3:2:2E,2 C, | (3F,,A,,C, (3F,A,C (3E,D,C, | %139
 (3F,,B,,D, (3F,B,D (3F,E,D, | (3F,,C,F, (3A,CE (3A,G,F, | [F,,=E,]2 z4 | %142
 [F,,-F,]2 (3F,,A,,C, (3F,G,A, | (3:2:2B,2 A, (3:2:2B,2 =E, (3:2:2F,2 F,, | %144
 (3B,,D,E, (3F,D,C, (3B,,D,G, | G,,2 z4 | (3D,,B,,C, (3D,C,B,, (3F,D,B,, | (3:2:2E,,2 E, F,2 F,,2 | %148
 B,,4- (3:2:2B,,2 z |] %149

